assets/images/icons/image.svg

<!DOCTYPE svg PUBLIC "-//W3C//DTD SVG 1.1//EN" "http://www.w3.org/Graphics/SVG/1.1/DTD/svg11.dtd">
<!-- Uploaded to: SVG Repo, www.svgrepo.com, Transformed by: SVG Repo Mixer Tools -->
<svg width="800px" height="800px" viewBox="0 0 24 24" fill="none" xmlns="http://www.w3.org/2000/svg" stroke="#5A121A">
<g id="SVGRepo_bgCarrier" stroke-width="0"/>
<g id="SVGRepo_tracerCarrier" stroke-linecap="round" stroke-linejoin="round"/>
<g id="SVGRepo_iconCarrier"> <path d="M14.2639 15.9375L12.5958 14.2834C11.7909 13.4851 11.3884 13.086 10.9266 12.9401C10.5204 12.8118 10.0838 12.8165 9.68048 12.9536C9.22188 13.1095 8.82814 13.5172 8.04068 14.3326L4.04409 18.2801M14.2639 15.9375L14.6053 15.599C15.4112 14.7998 15.8141 14.4002 16.2765 14.2543C16.6831 14.126 17.12 14.1311 17.5236 14.2687C17.9824 14.4251 18.3761 14.8339 19.1634 15.6514L20 16.4934M14.2639 15.9375L18.275 19.9565M18.275 19.9565C17.9176 20 17.4543 20 16.8 20H7.2C6.07989 20 5.51984 20 5.09202 19.782C4.71569 19.5903 4.40973 19.2843 4.21799 18.908C4.12796 18.7313 4.07512 18.5321 4.04409 18.2801M18.275 19.9565C18.5293 19.9256 18.7301 19.8727 18.908 19.782C19.2843 19.5903 19.5903 19.2843 19.782 18.908C20 18.4802 20 17.9201 20 16.8V16.4934M4.04409 18.2801C4 17.9221 4 17.4575 4 16.8V7.2C4 6.0799 4 5.51984 4.21799 5.09202C4.40973 4.71569 4.71569 4.40973 5.09202 4.21799C5.51984 4 6.07989 4 7.2 4H16.8C17.9201 4 18.4802 4 18.908 4.21799C19.2843 4.40973 19.5903 4.71569 19.782 5.09202C20 5.51984 20 6.0799 20 7.2V16.4934M17 8.99989C17 10.1045 16.1046 10.9999 15 10.9999C13.8954 10.9999 13 10.1045 13 8.99989C13 7.89532 13.8954 6.99989 15 6.99989C16.1046 6.99989 17 7.89532 17 8.99989Z" stroke="#5A121A" stroke-width="2" stroke-linecap="round" stroke-linejoin="round"/> </g>
</svg>

<svg xmlns="http://www.w3.org/2000/svg" width="800" height="800" fill="none" stroke="#5A121A" viewBox="0 0 24 24"><path stroke-linecap="round" stroke-linejoin="round" stroke-width="2" d="m14.264 15.938-1.668-1.655c-.805-.798-1.208-1.197-1.67-1.343a2 2 0 0 0-1.246.014c-.458.155-.852.563-1.64 1.379L4.045 18.28m10.22-2.343.341-.338c.806-.8 1.21-1.199 1.671-1.345a2 2 0 0 1 1.248.015c.458.156.852.565 1.64 1.382l.836.842m-5.736-.555 4.011 4.018m0 0c-.357.044-.82.044-1.475.044H7.2c-1.12 0-1.68 0-2.108-.218a2 2 0 0 1-.874-.874 1.845 1.845 0 0 1-.174-.628m14.231 1.676a1.85 1.85 0 0 0 .633-.174 2 2 0 0 0 .874-.874C20 18.48 20 17.92 20 16.8v-.307M4.044 18.28C4 17.922 4 17.457 4 16.8V7.2c0-1.12 0-1.68.218-2.108a2 2 0 0 1 .874-.874C5.52 4 6.08 4 7.2 4h9.6c1.12 0 1.68 0 2.108.218a2 2 0 0 1 .874.874C20 5.52 20 6.08 20 7.2v9.293M17 9a2 2 0 1 1-4 0 2 2 0 0 1 4 0Z"/></svg>
